public/images/notification.svg

<svg width="34" height="34" viewBox="0 0 34 34" fill="none" xmlns="http://www.w3.org/2000/svg">
<circle cx="15" cy="24.1406" r="3.75" fill="#9863E0"/>
<g filter="url(#filter0_b_365_27825)">
<path d="M7.92118 12.5948C7.95722 8.73501 11.0964 5.625 14.9564 5.625C18.842 5.625 21.9919 8.7749 21.9919 12.6605V15V18.4464C21.9919 19.2066 22.4227 19.9011 23.1038 20.2388C24.5863 20.9739 24.5863 23.0886 23.1038 23.8237L22.4839 24.1311C22.1602 24.2915 21.8039 24.375 21.4427 24.375H8.37917C8.00596 24.375 7.6382 24.2855 7.30673 24.114L6.7618 23.8321C5.30447 23.078 5.30855 20.9924 6.76882 20.2441C7.43659 19.9019 7.85934 19.2174 7.86635 18.4671L7.89872 15L7.92118 12.5948Z" fill="white" fill-opacity="0.32"/>
<path d="M14.9564 5.53125C11.045 5.53125 7.86395 8.6827 7.82743 12.5939L7.80498 14.9991L7.7726 18.4662C7.76592 19.1817 7.36281 19.8343 6.72607 20.1606C5.19796 20.9437 5.19368 23.1263 6.71872 23.9153L7.26365 24.1973C7.60843 24.3757 7.99097 24.4688 8.37917 24.4688H21.4427C21.8184 24.4688 22.1889 24.3819 22.5255 24.215L23.1454 23.9077C24.6975 23.1381 24.6975 20.9244 23.1454 20.1548C22.4963 19.833 22.0856 19.171 22.0856 18.4464V15V12.6605C22.0856 8.72312 18.8937 5.53125 14.9564 5.53125Z" stroke="url(#paint0_linear_365_27825)" stroke-opacity="0.5" stroke-width="0.1875"/>
</g>
<g filter="url(#filter1_d_365_27825)">
<path d="M15 7.5L15 3.28125" stroke="white" stroke-width="1.5" stroke-linecap="round" stroke-linejoin="round"/>
</g>
<defs>
<filter id="filter0_b_365_27825" x="1.73364" y="1.6875" width="26.4194" height="26.625" filterUnits="userSpaceOnUse" color-interpolation-filters="sRGB">
<feFlood flood-opacity="0" result="BackgroundImageFix"/>
<feGaussianBlur in="BackgroundImageFix" stdDeviation="1.875"/>
<feComposite in2="SourceAlpha" operator="in" result="effect1_backgroundBlur_365_27825"/>
<feBlend mode="normal" in="SourceGraphic" in2="effect1_backgroundBlur_365_27825" result="shape"/>
</filter>
<filter id="filter1_d_365_27825" x="13.5" y="2.53125" width="3" height="7.21875" filterUnits="userSpaceOnUse" color-interpolation-filters="sRGB">
<feFlood flood-opacity="0" result="BackgroundImageFix"/>
<feColorMatrix in="SourceAlpha" type="matrix" values="0 0 0 0 0 0 0 0 0 0 0 0 0 0 0 0 0 0 127 0" result="hardAlpha"/>
<feOffset dy="0.75"/>
<feGaussianBlur stdDeviation="0.375"/>
<feComposite in2="hardAlpha" operator="out"/>
<feColorMatrix type="matrix" values="0 0 0 0 0 0 0 0 0 0 0 0 0 0 0 0 0 0 0.1 0"/>
<feBlend mode="normal" in2="BackgroundImageFix" result="effect1_dropShadow_365_27825"/>
<feBlend mode="normal" in="SourceGraphic" in2="effect1_dropShadow_365_27825" result="shape"/>
</filter>
<linearGradient id="paint0_linear_365_27825" x1="7.98628" y1="5.62497" x2="33.0759" y2="27.3437" gradientUnits="userSpaceOnUse">
<stop stop-opacity="0"/>
<stop offset="1" stop-color="white"/>
</linearGradient>
</defs>
</svg>

<svg width="34" height="34" fill="none" xmlns="http://www.w3.org/2000/svg"><circle cx="15" cy="24.141" r="3.75" fill="#9863E0"/><g filter="url(#a)"><path d="M7.921 12.595a7.036 7.036 0 0 1 14.07.066v5.785a2 2 0 0 0 1.113 1.793c1.482.735 1.482 2.85 0 3.585l-.62.307c-.324.16-.68.244-1.041.244H8.379c-.373 0-.74-.09-1.072-.261l-.545-.282c-1.458-.754-1.453-2.84.007-3.588a2.018 2.018 0 0 0 1.097-1.777L7.9 15l.022-2.405Z" fill="#fff" fill-opacity=".32"/><path d="M14.956 5.531a7.13 7.13 0 0 0-7.129 7.063l-.022 2.405-.032 3.467a1.924 1.924 0 0 1-1.047 1.695c-1.528.783-1.532 2.965-.007 3.754l.545.282c.344.179.727.272 1.115.272h13.064c.375 0 .746-.087 1.082-.254l.62-.307c1.553-.77 1.553-2.984 0-3.753a1.907 1.907 0 0 1-1.06-1.709V12.66a7.13 7.13 0 0 0-7.129-7.129Z" stroke="url(#b)" stroke-opacity=".5" stroke-width=".188"/></g><g filter="url(#c)"><path d="M15 7.5V3.281" stroke="#fff" stroke-width="1.5" stroke-linecap="round" stroke-linejoin="round"/></g><defs><filter id="a" x="1.734" y="1.688" width="26.419" height="26.625" filterUnits="userSpaceOnUse" color-interpolation-filters="sRGB"><feFlood flood-opacity="0" result="BackgroundImageFix"/><feGaussianBlur in="BackgroundImageFix" stdDeviation="1.875"/><feComposite in2="SourceAlpha" operator="in" result="effect1_backgroundBlur_365_27825"/><feBlend in="SourceGraphic" in2="effect1_backgroundBlur_365_27825" result="shape"/></filter><filter id="c" x="13.5" y="2.531" width="3" height="7.219" filterUnits="userSpaceOnUse" color-interpolation-filters="sRGB"><feFlood flood-opacity="0" result="BackgroundImageFix"/><feColorMatrix in="SourceAlpha" values="0 0 0 0 0 0 0 0 0 0 0 0 0 0 0 0 0 0 127 0" result="hardAlpha"/><feOffset dy=".75"/><feGaussianBlur stdDeviation=".375"/><feComposite in2="hardAlpha" operator="out"/><feColorMatrix values="0 0 0 0 0 0 0 0 0 0 0 0 0 0 0 0 0 0 0.1 0"/><feBlend in2="BackgroundImageFix" result="effect1_dropShadow_365_27825"/><feBlend in="SourceGraphic" in2="effect1_dropShadow_365_27825" result="shape"/></filter><linearGradient id="b" x1="7.986" y1="5.625" x2="33.076" y2="27.344" gradientUnits="userSpaceOnUse"><stop stop-opacity="0"/><stop offset="1" stop-color="#fff"/></linearGradient></defs></svg>
